X:1
T: The Eighth of May
C:C Sherrit
R:Jig
Q:180
K:D
M:6/8
L:1/16
A2|:f6 a6|g2f2e2 d2A2F2|G4B2 A2d2e2|f2a2f2 e2f2g2|
f6 a4d2|e2d2c2 d2G2B2|c2e2A2 g2e2c2|1e6d4A2:|2e6 d2c2B2|
|:A6 d6|B2d2B2 B2A2A2|g6 f2e2d2|
|1e2c2A2 G2F2G2|A6 d6|B2d2B2 G2A2B2|c2e2A2 g2e2c2|e6 d2c2B2:|
|2e2c2B2 A2a2g2|f6 a4d2|e2d2c2 d2G2B2|c2e2A2 g2e2c2|e6 d4||
